X:1
T:Am Grabe
T:Nach Friedrich Wilhelm Berner
T:Dorothea Wehrs
T:Am Grabe
T:CPDL   —   Creative Commons Attribution Non Commercial 3.0
T:CPDL   —   Creative Commons Attribution Non Commercial 3.0
C:Friedrich Wilhelm Berner
Z:Dorothea Wehrs
Z:CPDL   —   Creative Commons Attribution Non Commercial 3.0
%%score [ ( 1 2 ) 3 4 ]
L:1/8
Q:1/4=80
M:3/4
K:Ab
V:1 treble nm="Sopran\nAlt"
V:2 treble 
V:3 treble-8 nm="Tenor"
V:4 bass nm="Bass"
V:1
!p!"^Getragen" A4!<(! A2 | A4!<)! A2 |!mf! (A2 d2) cB |!>(! A2 G2!>)! z2 |!p! c4!<(! c2!<)! | %5
w: 1.  Ru- hig|ist des|To- * des *|Schlum- mer|und der|
w: 2.  Uns'- re|Kla- gen,|uns'- * re *|Trä- nen|wer- den|
 (d2 c2) B2 |!>(! (A2 B2) G2!>)! | A4 z2 |!p! c4 B2 | A4!<(! A2 | (G3!<)! B) cA | %11
w: Schoß _ der|Er- * de|kühl;|da stört|uns'- re|Ruh _ kein *|
w: e- * wig|dann _ ge-|stillt;|uns'- re|Wün- sche,|un- * ser *|
!>(! G2 F2!>)! z2 |!p!!<(! B4 =B2!<)! | c4 BA | (G2!>(! B2) A2!>)! | G4 z2 |!mf!!<(! E4 E2!<)! | %17
w: Kum- mer,|nicht der|Lei- den- *|schaf- * ten|Spiel.|Uns'- re|
w: Seh- nen|all- es,|al- les *|wird _ er-|füllt.|Her- zen,|
!f! d4 d2 | (c2 B2)!>(! A2 | (A4!>)! G2) |!mf!!<(! E4!<)! E2 |!f! d4 d2 | (c2 B2) A2 | %23
w: Sor- gen,|groß _ und|klein, _|schlum- mern|al- le|mit _ uns|
w: die sonst|heiß _ ge-|wallt, _|lie- gen|ru- hig|hier _ und|
!>(! B4!>)! z2 |!p!!<(! c4 B2!<)! | A4 cB | A4 B2 |!>(! c6!>)! |!mf! d4 d2 | (d2 c2) BA | %30
w: ein,|uns'- re|Sor- gen, *|groß und|klein,|schlum- mern|al- * le *|
w: kalt,|Her- zen,|die sonst *|heiß ge-|wallt,|lie- gen|ru- * hig *|
 (A2!>(! G2) FG!>)! | !fermata!A4 z2 |] %32
w: mit _ uns *|ein.|
w: hier _ und *|kalt.|
V:2
 E4 E2 | F4 _G2 | F4 F2 | E2 E2 x2 | (E2 A2) _G2 | F4 F2 | E4 D2 | C4 x2 | E4 =E2 | (F2 _E2) =D2 | %10
 E4 E2 | E2 =D2 x2 | (E2 G2) F2 | E4 GF | (E2 G2) F2 | E4 x2 | E4 E2 | E4 E2 | E4 E2 | E6 | E4 E2 | %21
 E4 E2 | E4 E2 | G4 x2 | A4 G2 | F4 F2 | E4 E2 | =E6 | _E4 E2 | E4 E2 | E4 E2 | E4 x2 |] %32
V:3
!p! c4!<(! c2 | c4!<)! c2 |!mf! (d2 f2) ed |!>(! c2 B2!>)! z2 |!p! (A2!<(! c2) e2!<)! | d4 d2 | %6
w: 3.  Läg' mein|Herz, von|Gram _ und *|Sor- gen|die- * ses|Le- bens|
!>(! (c2 d2) B2!>)! | A4 z2 |!p! A4 c2 | c4!<(! B2 | (B3!<)! G) Ac |!>(! B2 B2!>)! z2 | %12
w: nicht _ em-|pört,|in der|Er- de|Schoß _ ver- *|bor- gen,|
!p!!<(! (B2 e2) =d2!<)! | c4 c2 | B4!>(! B2!>)! | B4 z2 |!mf!!<(! (B2 d2) B2!<)! |!f! (G2 A2) B2 | %18
w: wo _ nichts|sei- nen|Frie- den|stört.|Küh- * les|Grab, _ wann|
 (ce d2)!>(! c2 | (c4!>)! B2) |!mf!!<(! (B2 d2)!<)! B2 |!f! (G2 A2) B2 | (ce d2) c2 | %23
w: schlie- * * ßest|du _|mich _ in|dei- * ne|stil- * * le|
!>(! e4!>)! z2 |!p!!<(! e4 d2!<)! | c4 d2 | c4 G2 |!>(! G6!>)! |!mf! G4 B2 | (B2 A2) A2 | %30
w: Ruh',|küh- les|Grab, wann|schlie- ßest|du|mich in|dei- * ne|
 (c2!>(! B2) AB!>)! | !fermata!c4 z2 |] %32
w: stil- * le *|Ruh'?|
V:4
!p! A,4!<(! A,G, | F,4!<)! E,2 |!mf! D,4 D,2 |!>(! E,2 E,2!>)! z2 |!p! A,4!<(! A,2!<)! | D,4 D,2 | %6
!>(! E,4 E,2!>)! | A,,4 z2 |!p! A,4 G,2 | F,4!<(! F,2 | E,4!<)! A,,2 |!>(! B,,2 B,,2!>)! z2 | %12
!p!!<(! G,,4 G,,2!<)! | A,,4 A,,2 | B,,4!>(! C,=D,!>)! | E,4 z2 |!mf!!<(! (G,2 B,2) G,2!<)! | %17
!f! (E,2 F,2) G,2 | A,4!>(! A,2 | E,6!>)! |!mf!!<(! (G,2 B,2)!<)! G,2 |!f! (E,2 F,2) G,2 | %22
 A,4 A,2 |!>(! E,4!>)! z2 |!p!!<(! A,4 E,2!<)! | F,4 D,2 | E,4 E,D, |!>(! C,6!>)! |!mf! B,,4 G,,2 | %29
 A,,4 C,2 |!>(! E,4 E,2!>)! | !fermata!A,,4 z2 |] %32

